<?xml version="1.0" encoding="UTF-8"?>
<map version="1.10" tiledversion="1.12.2" orientation="orthogonal" renderorder="right-down" width="56" height="24" tilewidth="16" tileheight="16" infinite="0" nextlayerid="9" nextobjectid="91">
 <tileset firstgid="1" source="ex1.tsx"/>
 <tileset firstgid="257" source="office_spritesheet_extended.tsx"/>
 <tileset firstgid="7025" source="ani.tsx"/>
 <tileset firstgid="8049" source="office_spritesheet2.tsx"/>
 <objectgroup id="8" name="Object Layer 1">
  <object id="17" x="186.909" y="112.727" width="5.45455" height="78.9091"/>
  <object id="18" x="-0.25" y="187.125" width="192.25" height="4.69318"/>
  <object id="19" x="-0.25" y="31.25" width="4.75" height="158.75"/>
  <object id="20" x="143" y="-0.25" width="31.75" height="6.75"/>
  <object id="21" x="167" y="7.25" width="9.75" height="25"/>
  <object id="22" x="142.75" y="5.25" width="9.5" height="27"/>
  <object id="25" x="186.5" y="32" width="5.5" height="49.25"/>
  <object id="26" x="35.25" y="67.75" width="36.75" height="26.75"/>
  <object id="27" x="98" y="65.75" width="38.25" height="28.5"/>
  <object id="31" x="98.75" y="130.25" width="36.75" height="27.75"/>
  <object id="32" x="34" y="131" width="37.25" height="27.25"/>
  <object id="33" x="7" y="31.25" width="18.25" height="16.25"/>
  <object id="34" x="37.75" y="31.25" width="21" height="14.25"/>
  <object id="35" x="97" y="30.5" width="30.25" height="16.25"/>
  <object id="36" x="172" y="32" width="7.5" height="12.5"/>
  <object id="37" x="16.25" y="223.25" width="31.75" height="17.75"/>
  <object id="38" x="99.75" y="223.75" width="24" height="15.75"/>
  <object id="39" x="131.75" y="223.5" width="24.25" height="15.75"/>
  <object id="40" x="169.25" y="223.75" width="13" height="15.5"/>
  <object id="41" x="34.75" y="258" width="27" height="29.75"/>
  <object id="42" x="98.75" y="258.75" width="27" height="29"/>
  <object id="43" x="34" y="322" width="27.5" height="29.5"/>
  <object id="44" x="98" y="321.5" width="28.5" height="30"/>
  <object id="45" x="304" y="288" width="8.75" height="32.5"/>
  <object id="46" x="327" y="288.5" width="8.75" height="32.25"/>
  <object id="47" x="407.25" y="223.5" width="17.75" height="15.75"/>
  <object id="48" x="264" y="222.75" width="15.5" height="14.25"/>
  <object id="49" x="274.5" y="31.25" width="26.25" height="15"/>
  <object id="50" x="262.5" y="148" width="19.5" height="27"/>
  <object id="51" x="401" y="32.25" width="29" height="15"/>
  <object id="52" x="255.25" y="31.75" width="5.75" height="48.5"/>
  <object id="53" x="255.75" y="112" width="5.25" height="80"/>
  <object id="54" x="260.25" y="186.5" width="188" height="5"/>
  <object id="55" x="443" y="112.25" width="5.5" height="78.5"/>
  <object id="56" x="442.75" y="31.75" width="5.75" height="49.25"/>
  <object id="57" x="186.75" y="223.5" width="5.25" height="17"/>
  <object id="58" x="186.25" y="272" width="6.25" height="113"/>
  <object id="59" x="-1" y="378.5" width="194" height="5.75"/>
  <object id="60" x="-0.75" y="223" width="5.25" height="160"/>
  <object id="61" x="447.75" y="319.5" width="5.25" height="65"/>
  <object id="62" x="447.25" y="378.25" width="225.25" height="6.25"/>
  <object id="63" x="666.5" y="223.75" width="5.5" height="160.75"/>
  <object id="64" x="520.5" y="223.5" width="14.25" height="15.5"/>
  <object id="65" x="511.5" y="223.5" width="5.75" height="96.5"/>
  <object id="66" x="503" y="308.75" width="17.5" height="26.25"/>
  <object id="67" x="512" y="31.75" width="5.25" height="17.25"/>
  <object id="68" x="571.25" y="31.75" width="9.75" height="21.5"/>
  <object id="69" x="527.25" y="47.25" width="113.25" height="7.25"/>
  <object id="70" x="635" y="32" width="5.25" height="15.75"/>
  <object id="72" x="527.5" y="47.75" width="9.5" height="32.25"/>
  <object id="73" x="551" y="47" width="11.75" height="32.75"/>
  <object id="74" x="591.75" y="47.75" width="8.5" height="32"/>
  <object id="75" x="614.5" y="46.75" width="11.75" height="33"/>
  <object id="76" x="634.5" y="79.5" width="10.5" height="32.5"/>
  <object id="77" x="512" y="79.75" width="5.25" height="33"/>
  <object id="78" x="767.75" y="-0.75" width="11" height="32.25"/>
  <object id="79" x="788.75" y="-0.25" width="12" height="32.75"/>
  <object id="80" x="767.25" y="-0.25" width="33.25" height="6.5"/>
  <object id="81" x="823.25" y="31.75" width="17.25" height="14.75"/>
  <object id="82" x="740.75" y="255.25" width="25" height="16"/>
  <object id="83" x="809.25" y="255.75" width="13.5" height="16"/>
  <object id="84" x="890.5" y="31.25" width="5.25" height="192.75"/>
  <object id="85" x="767.5" y="223.25" width="11" height="32.5"/>
  <object id="86" x="789" y="223.5" width="11.25" height="33"/>
 </objectgroup>
 <layer id="7" name="Collision" width="56" height="24">
  <data encoding="csv">
6666,6666,6666,6666,6666,6666,6666,6666,6666,0,0,6666,0,0,0,0,6666,6666,6666,6666,6666,6666,6666,6666,6666,6666,6666,6666,0,0,0,0,6666,6666,6666,6666,6666,6666,6666,6666,6666,6666,6666,6666,6666,6666,6666,6666,0,0,6666,6666,6666,6666,6666,6666,
6666,6666,6666,6666,6666,6666,6666,6666,6666,0,0,6666,0,0,0,0,6666,6666,6666,6666,6666,6666,6666,6666,6666,6666,6666,6666,0,0,0,0,6666,6666,6666,6666,6666,6666,6666,6666,6666,6666,6666,6666,6666,6666,6666,6666,0,0,6666,6666,6666,6666,6666,6666,
0,0,0,0,0,0,0,0,0,0,0,0,0,0,0,0,0,0,0,0,0,0,0,0,0,0,0,0,0,0,0,0,0,0,0,0,0,0,0,0,6666,6666,0,0,0,6666,0,0,0,0,0,0,0,0,0,0,
0,0,0,0,0,0,0,0,0,0,0,0,0,0,0,0,0,0,0,0,0,0,0,0,0,0,0,0,0,0,0,0,6666,0,0,6666,6666,0,0,6666,6666,6666,0,0,0,6666,0,0,0,0,0,0,0,0,0,0,
0,0,0,0,0,0,0,0,0,0,0,0,0,0,0,0,0,0,0,0,0,0,0,0,0,0,0,0,0,0,0,0,6666,0,0,6666,6666,0,0,6666,6666,6666,0,0,0,6666,0,0,0,0,0,0,0,0,0,0,
0,0,0,0,0,0,0,0,0,0,0,0,0,0,0,0,0,0,0,6666,6666,6666,6666,6666,6666,0,0,0,0,0,0,0,0,0,0,0,0,0,0,0,6666,6666,0,0,0,6666,0,0,0,0,0,0,0,0,0,0,
0,0,0,0,0,0,0,0,0,0,0,0,0,0,0,0,0,0,0,6666,6666,6666,6666,6666,6666,0,0,0,0,0,0,0,0,0,0,0,0,0,0,0,0,0,0,0,0,6666,0,0,0,0,0,0,0,0,0,0,
0,0,0,0,0,0,0,0,0,0,0,0,0,0,0,0,0,0,0,0,0,0,0,0,0,0,0,0,0,0,0,0,6666,6666,6666,0,0,6666,6666,6666,6666,6666,0,6666,6666,6666,0,0,0,0,0,0,0,0,0,0,
0,0,0,0,0,0,0,0,0,0,0,0,0,0,0,0,0,0,0,0,0,0,0,0,0,0,0,0,0,0,0,0,6666,6666,6666,0,0,6666,6666,6666,6666,6666,0,0,0,0,0,0,0,0,0,0,0,0,0,0,
0,0,0,0,0,0,0,0,0,0,0,0,0,0,0,0,0,0,0,0,0,0,0,0,0,0,0,0,0,0,0,0,0,0,0,0,0,0,0,0,0,0,0,0,0,0,0,0,0,0,0,0,0,0,0,0,
0,0,0,0,0,0,0,0,0,0,0,0,0,0,0,0,0,0,0,0,0,0,0,0,0,0,0,0,0,0,0,0,0,0,0,0,0,0,0,0,0,0,0,0,0,0,0,0,0,0,0,0,0,0,0,0,
0,0,0,0,0,0,0,0,0,0,0,0,0,0,0,0,0,0,0,0,0,0,0,0,0,0,0,0,0,0,0,0,0,0,0,0,0,0,0,0,0,0,0,0,0,0,0,0,0,0,0,0,0,0,0,0,
6666,6666,6666,6666,6666,6666,6666,6666,6666,6666,6666,6666,0,0,0,0,6666,6666,6666,6666,6666,6666,6666,6666,6666,6666,6666,6666,0,0,0,0,6666,6666,6666,6666,6666,6666,6666,6666,6666,6666,0,0,0,0,0,0,0,0,0,0,0,0,0,0,
6666,6666,6666,6666,6666,6666,6666,6666,6666,6666,6666,6666,0,0,0,0,6666,6666,6666,6666,6666,6666,6666,6666,6666,6666,6666,6666,0,0,0,0,6666,6666,6666,6666,6666,6666,6666,6666,6666,6666,0,0,0,0,0,0,0,0,0,0,0,0,0,0,
0,0,0,0,0,0,0,0,0,0,0,0,0,0,0,0,0,0,0,0,0,0,0,0,0,0,0,0,0,0,0,0,0,0,0,0,0,0,0,0,0,0,6666,6666,6666,6666,6666,6666,0,0,6666,6666,6666,6666,6666,6666,
0,0,0,0,0,0,0,0,0,0,0,0,0,0,0,0,0,0,0,0,0,0,0,0,0,0,0,0,0,0,0,0,0,0,0,0,0,0,0,0,0,0,6666,6666,6666,6666,6666,6666,0,0,6666,6666,6666,6666,6666,6666,
0,0,0,0,0,0,0,0,0,0,0,0,0,0,0,0,0,0,0,0,0,0,0,0,0,0,0,0,0,0,0,0,0,0,0,6666,6666,6666,6666,0,0,0,0,0,0,0,0,0,0,0,0,0,0,0,0,0,
0,0,0,0,0,0,0,0,0,0,0,0,0,0,0,0,0,0,0,0,0,0,0,0,0,0,0,0,0,0,0,0,0,0,0,6666,6666,6666,6666,0,0,0,0,0,0,0,0,0,0,0,0,0,0,0,0,0,
0,0,0,0,0,0,0,0,0,0,0,0,6666,6666,6666,6666,6666,6666,6666,0,0,6666,6666,6666,6666,6666,6666,6666,6666,0,0,6666,0,0,0,0,0,0,0,0,0,0,0,0,0,0,0,0,0,0,0,0,0,0,0,0,
0,0,0,0,0,0,0,0,0,0,0,0,6666,6666,6666,6666,6666,6666,6666,0,0,6666,6666,6666,6666,6666,6666,6666,6666,0,0,6666,0,0,0,0,0,0,0,0,0,0,0,0,0,0,0,0,0,0,0,0,0,0,0,0,
0,0,0,0,0,0,0,0,0,0,0,0,0,0,0,0,0,0,0,0,0,0,0,0,0,0,0,0,0,0,0,0,0,0,0,6666,6666,6666,6666,0,0,0,0,0,0,0,0,0,0,0,0,0,0,0,0,0,
0,0,0,0,0,0,0,0,0,0,0,0,0,0,0,0,0,0,0,0,0,0,0,0,0,0,0,0,0,0,0,0,0,0,0,6666,6666,6666,6666,0,0,0,0,0,0,0,0,0,0,0,0,0,0,0,0,0,
0,0,0,0,0,0,0,0,0,0,0,0,0,0,0,0,0,0,0,0,0,0,0,0,0,0,0,0,0,0,0,0,0,0,0,0,0,0,0,0,0,0,0,0,0,0,0,0,0,0,0,0,0,0,0,0,
0,0,0,0,0,0,0,0,0,0,0,0,6666,6666,6666,6666,6666,6666,6666,6666,6666,6666,6666,6666,6666,6666,6666,6666,0,0,0,0,0,0,0,0,0,0,0,0,0,0,0,0,0,0,0,0,0,0,0,0,0,0,0,0
</data>
 </layer>
 <layer id="1" name="Tile Layer 1" width="56" height="24">
  <data encoding="csv">
1,2,0,0,0,0,0,0,0,0,0,0,8833,8834,8833,8834,1,2,0,0,0,0,0,0,0,0,0,0,3221234354,3221234353,3221234354,3221234353,0,0,0,0,0,0,0,0,0,0,0,0,0,0,0,0,1648,1648,0,0,0,0,0,0,
17,18,0,0,0,0,0,0,0,0,0,0,8881,8882,8881,8882,17,18,0,0,0,0,0,0,0,0,0,0,3221234306,3221234305,3221234306,3221234305,0,0,0,0,0,0,0,0,0,0,0,0,0,0,0,0,1648,1648,0,0,0,0,0,0,
8059,8060,8059,8060,8059,8060,8059,8060,8059,8060,8059,8060,8061,8062,8061,8062,8059,8060,8059,8060,8059,8060,8059,8060,8059,8060,8059,8060,8061,8062,8061,8062,1707,1708,1707,1708,1707,1708,1707,1708,1575,1576,1575,1576,1575,1576,1575,1576,1575,1576,1575,1576,1575,1576,1575,1576,
8107,8108,8107,8108,8107,8108,8107,8108,8107,8108,8107,8108,8109,8110,8109,8110,8059,8060,8107,8108,8107,8108,8107,8108,8107,8108,8107,8108,8109,8110,8109,8110,1779,1780,1779,1780,1779,1780,1779,1780,1647,1648,1647,1648,1647,1648,1647,1648,1647,1648,1647,1648,1647,1648,1647,1648,
8059,8060,8059,8060,8059,8060,8059,8060,8059,8060,8059,8060,8061,8062,8061,8062,8107,8108,8059,8060,8059,8060,8059,8060,8059,8060,8059,8060,8061,8062,8061,8062,1707,1707,1708,1707,1707,1708,1707,1708,1575,1576,1575,1576,1575,1576,1575,1576,1575,1576,1575,1576,1575,1576,1575,1576,
8107,8108,8107,8108,8107,8108,8107,8108,8107,8108,8107,8108,8109,8110,8109,8110,8059,8060,8107,8108,8107,8108,8107,8108,8107,8108,8107,8108,8109,8110,8109,8110,1779,1779,1780,1779,1779,1780,1779,1780,1647,1648,1647,1648,1647,1648,1647,1648,1647,1648,1647,1648,1647,1648,1647,1648,
8059,8060,8059,8060,8059,8060,8059,8060,8059,8060,8059,8060,8061,8062,8061,8062,8107,8108,8059,8060,8059,8060,8059,8060,8059,8060,8059,8060,8061,8062,8061,8062,1707,1708,1707,1708,1707,1708,1707,1708,1575,1576,1575,1576,1575,1576,1575,1576,1575,1576,1575,1576,1575,1576,1575,1576,
8107,8108,8107,8108,8107,8108,8107,8108,8107,8108,8107,8108,8109,8110,8109,8110,8059,8060,8107,8108,8059,8060,8059,8060,8107,8108,8107,8108,8109,8110,8109,8110,1779,1780,1779,1707,1708,1780,1779,1780,1647,1648,1647,1648,1647,1648,1647,1648,1647,1648,1647,1648,1647,1648,1647,1648,
8059,8060,8059,8060,8059,8060,8059,8060,8059,8060,8059,8060,8061,8062,8061,8062,8107,8108,8107,8108,8107,8108,8107,8108,8059,8060,8059,8060,8061,8062,8061,8062,0,0,0,1779,1780,0,0,0,23,24,1575,1576,1575,1576,1575,1576,1575,1576,1575,1576,1575,1576,1575,1576,
8107,8108,8107,8108,8107,8108,8107,8108,8107,8108,8107,8108,8109,8110,8109,8110,8059,8060,8059,8060,8059,8060,8059,8060,8059,8060,8107,8108,8109,8110,8109,8110,8061,8062,8061,8062,8061,8062,8061,8062,8061,8062,1647,1648,1647,1648,1647,1648,1647,1648,1647,1648,1647,1648,1647,1648,
8059,8060,8059,8060,8059,8060,8059,8060,8059,8060,8059,8060,8061,8062,8061,8062,8107,8108,8107,8108,8107,8108,8107,8108,8107,8108,8059,8060,8061,8062,8061,8062,8109,8110,8109,8110,8109,8110,8109,8110,8109,8110,1575,1576,1575,1576,1575,1576,1575,1576,1575,1576,1575,1576,1575,1576,
8107,8108,8107,8108,8107,8108,8107,8108,8107,8108,8107,8108,8109,8110,8109,8110,8059,8060,8059,8060,8059,8060,8059,8060,8059,8060,8059,8060,8109,8110,8109,8110,8061,8062,8061,8062,8061,8062,8061,8062,8061,8062,1647,1648,1647,1648,1647,1648,1647,1648,1647,1648,1647,1648,1647,1648,
1,2,0,0,0,0,0,0,0,0,0,0,8061,8062,8061,8062,8107,8108,8107,8108,8107,8108,8107,8108,8107,8108,8107,8108,8061,8062,8061,8062,8109,8110,8109,8110,8109,8110,8109,8110,8109,8110,1575,1576,1575,1576,1575,1576,1575,1576,1575,1576,1575,1576,1575,1576,
17,18,0,0,0,0,0,0,0,0,0,0,8109,8110,8109,8110,35,35,35,35,35,35,35,35,35,35,35,35,8109,8110,8109,8110,0,0,0,0,0,0,0,0,0,0,1647,1648,1647,1648,1647,1648,1647,1648,1647,1648,1647,1648,1647,1648,
8059,8060,8059,8060,8059,8060,8059,8060,8059,8060,8059,8060,8061,8062,8061,8062,8061,8062,8061,8062,8061,8062,8061,8062,8061,8062,8061,8062,8061,8062,8061,8062,8049,8050,8050,8050,8050,8050,8050,8050,8050,8050,1575,1576,1575,1576,1575,1576,1575,1576,1575,1576,1575,1576,1575,1576,
8107,8108,8107,8108,8107,8108,8107,8108,8107,8108,8107,8108,8109,8110,8109,8110,8109,8110,8109,8110,8109,8110,8109,8110,8109,8110,8109,8110,8109,8110,8109,8110,8097,8098,8098,8050,8050,8098,8098,8098,8098,8098,1647,1648,1647,1648,1647,1648,1647,1648,1647,1648,1647,1648,1647,1648,
8059,8060,8059,8060,8059,8060,8059,8060,8059,8060,8059,8060,8061,8062,8061,8062,8061,8062,8061,8062,8061,8062,8061,8062,8061,8062,8061,8062,8061,8062,8061,8062,8049,8097,8098,8098,8098,8049,8050,8050,8097,8098,1697,1698,1697,1698,1697,1698,1697,1698,1697,1698,1697,1698,1697,1698,
8107,8108,8107,8108,8107,8108,8107,8108,8107,8108,8107,8108,8109,8110,8109,8110,8109,8110,8109,8110,8109,8110,8109,8110,8109,8110,8109,8110,8109,8110,8109,8110,8049,8050,8097,8098,8050,8049,8050,8098,8097,8098,1769,1770,1769,1770,1769,1770,1769,1770,1769,1770,1769,1770,1769,1770,
8059,8060,8059,8060,8059,8060,8059,8060,8059,8060,8059,8060,6463,6463,6463,6463,6463,6463,6463,6463,6463,6463,6463,6463,6463,6463,6463,6464,0,8061,8062,0,8049,8050,8049,8097,8098,8050,8050,8098,8097,8098,1697,1698,1697,1698,1697,1698,1697,1698,1697,1698,1697,1698,1697,1698,
8107,8108,8107,8108,8107,8108,8107,8108,8107,8108,8107,8108,6535,6535,6535,6535,6535,6535,6535,6535,6535,6535,6535,6535,6535,6535,6535,6536,0,8109,8110,0,8049,8049,8049,8097,8098,8098,8050,8098,8097,8098,1769,1770,1769,1770,1769,1770,1769,1770,1769,1770,1769,1770,1769,1770,
8059,8060,8059,8060,8059,8060,8059,8060,8059,8060,8059,8060,6463,6464,6464,6464,6464,6464,6464,6464,6464,6464,6464,6464,6464,6464,6464,6464,8049,8050,8049,8050,8097,8097,8049,8049,8097,8098,8098,8098,8097,8098,1697,1698,1697,1698,1697,1698,1697,1698,1697,1698,1697,1698,1697,1698,
8107,8108,8107,8108,8107,8108,8107,8108,8107,8108,8107,8108,6463,6464,6536,6536,6536,6536,6536,6536,6536,6536,6536,6536,6536,6536,6536,6536,8049,8050,8050,8050,8049,8049,8097,8097,8097,8097,8098,8049,8097,8098,1769,1770,1769,1770,1769,1770,1769,1770,1769,1770,1769,1770,1769,1770,
8059,8060,8059,8060,8059,8060,8059,8060,8059,8060,8059,8060,6463,6463,6463,6463,6463,6463,6463,6463,6463,6463,6463,6463,6463,6463,6463,6464,8049,8049,8049,8049,8097,8049,8049,8049,8049,8049,8049,8097,8097,8098,8833,8834,8833,8834,8833,8834,8833,8834,8833,8834,8833,8834,8833,8834,
8107,8108,8107,8108,8107,8108,8107,8108,8107,8108,8107,8108,6535,6535,6535,6535,6535,6535,6535,6535,6535,6535,6535,6535,6535,6535,6535,6536,8097,8097,8097,8097,8097,8097,8097,8097,8097,8097,8097,8097,8097,8098,8881,8882,8881,8882,8881,8882,8881,8882,8881,8882,8881,8882,8881,8882
</data>
 </layer>
 <layer id="2" name="Tile Layer 2" width="56" height="24">
  <data encoding="csv">
0,0,8145,8146,8165,8166,2,2,8145,8163,8164,8,0,0,0,0,0,0,8145,8146,8145,8243,8244,8146,8145,8146,8145,8,0,0,0,0,1,2,2,8,1,2,2,8,1,8145,8146,8145,8146,2,2,2,97,98,2,2,2,2,2,8,
0,0,8193,8194,8213,8214,18,18,8193,8211,8212,24,0,0,0,0,0,0,8193,8194,8193,8291,8292,8194,8193,8194,8193,24,0,0,0,0,17,18,18,24,17,18,18,24,17,8193,8194,8193,8194,18,18,18,113,114,18,18,18,18,18,24,
37,0,0,0,0,0,0,0,0,0,0,44,0,0,0,0,37,0,0,0,0,0,0,0,0,0,0,44,0,0,0,0,37,0,0,44,37,0,0,44,37,0,0,0,2684354677,2684354661,0,0,0,0,0,0,0,0,0,44,
37,0,0,0,0,0,0,0,0,0,0,44,0,0,0,0,37,0,0,8439,8440,8439,8440,8439,8440,0,0,44,0,0,0,0,1,9223,9224,8,1,9223,9224,8,37,0,0,0,2684354677,2684354661,0,0,0,0,0,0,0,0,0,44,
37,0,0,0,0,0,0,0,0,0,0,44,0,0,0,0,37,0,0,8487,8488,8487,8488,8487,8488,0,0,44,0,0,0,0,17,9271,9272,24,17,9271,9272,24,37,0,0,0,2684354677,2684354661,0,0,0,0,0,0,0,0,0,44,
37,0,3221233780,3221233779,0,0,3221233780,3221233779,0,0,0,0,0,0,0,0,0,0,0,105,106,107,107,107,108,0,0,0,0,0,0,0,37,0,0,0,0,0,0,44,37,0,0,0,2684354677,2684354661,0,0,0,0,0,0,0,0,0,44,
37,0,3221233732,3221233731,0,0,3221233732,3221233731,0,0,0,0,0,0,0,0,0,0,0,121,122,123,123,123,124,0,0,0,0,0,0,0,37,0,0,0,0,0,0,44,37,0,0,0,2684354677,2684354661,0,0,0,0,0,0,0,0,0,44,
37,0,0,0,0,0,0,0,0,0,0,44,0,0,0,0,37,0,0,103,104,103,104,103,104,0,0,44,0,0,0,0,57,59,58,0,0,58,58,60,7,8,0,0,2684354678,2684354662,0,0,0,0,0,0,0,0,0,44,
37,0,0,0,0,0,0,0,0,0,0,44,0,0,0,0,37,0,0,119,120,119,120,119,120,0,0,44,0,0,0,0,0,0,0,0,0,0,0,0,23,24,0,0,0,0,0,0,0,0,0,0,0,0,0,44,
37,0,3221233780,3221233779,0,0,3221233780,3221233779,0,0,0,44,0,0,0,0,37,0,0,0,0,0,0,0,0,0,0,44,0,0,0,0,0,0,0,0,0,0,0,0,0,0,0,0,0,0,0,0,0,0,0,0,0,0,0,44,
41,0,3221233732,3221233731,0,0,3221233732,3221233731,0,0,0,44,0,0,0,0,41,0,0,0,0,0,0,0,0,0,0,44,0,0,0,0,0,0,0,0,0,0,0,0,0,0,0,0,0,0,0,0,0,0,0,0,0,0,0,44,
57,58,58,58,58,58,58,58,58,58,58,60,0,0,0,0,57,58,58,58,58,58,58,58,58,58,58,60,0,0,0,0,0,0,0,0,0,0,0,0,0,0,0,0,0,0,0,0,0,0,0,0,0,0,0,44,
0,0,8145,8146,8145,8146,8145,8146,8145,8146,7,8,0,0,0,0,26,26,26,26,26,26,26,26,26,26,26,26,0,0,0,0,1,2,2,2,2,8145,8167,8168,2,8,0,0,0,0,0,0,0,0,0,0,0,0,0,44,
0,0,8193,8194,8193,8194,8193,8194,8193,8194,23,24,0,0,0,0,0,0,0,0,0,0,0,0,0,0,0,0,0,0,0,0,17,18,18,18,18,8193,8215,8216,18,24,0,0,0,0,0,0,0,0,0,0,0,0,0,44,
41,0,0,0,0,0,0,0,0,0,0,44,0,0,0,0,0,0,0,0,0,0,0,0,0,0,0,0,0,0,0,0,37,0,0,0,0,0,0,0,0,44,6177,6321,6322,6321,6322,6178,97,98,6177,6321,6322,6321,6322,6178,
41,0,0,0,0,0,0,0,0,0,0,0,0,0,0,0,0,0,0,0,0,0,0,0,0,0,0,0,0,0,0,0,37,0,0,8263,8264,8263,8264,0,0,44,6249,6393,6394,6393,6394,6250,113,114,6249,6393,6394,6393,6394,6250,
41,0,0,0,0,0,0,0,0,0,0,0,0,0,0,0,0,0,0,0,0,0,0,0,0,0,0,0,0,0,0,0,37,0,0,8311,8312,8311,8312,0,0,44,0,7025,0,0,0,0,0,0,0,0,0,0,0,0,
41,0,3221233782,3221233781,0,0,3221233782,3221233781,0,0,0,44,0,0,0,0,0,0,0,0,0,0,0,0,0,0,0,0,0,0,0,0,37,0,0,3221233784,3221233783,3221233784,3221233783,0,0,44,0,0,0,0,0,0,0,0,0,0,0,0,0,0,
41,0,3221233734,3221233733,0,0,3221233734,3221233733,0,0,0,44,6177,6321,6322,6321,6321,6322,6178,9223,9224,6177,6321,6322,6322,6321,6322,6178,1,0,0,2,37,0,0,3221233736,3221233735,3221233736,3221233735,0,0,44,0,0,0,0,0,0,0,0,0,0,0,0,0,0,
41,0,0,0,0,0,0,0,0,0,0,44,6249,6393,6394,6393,6393,6394,6250,9271,9272,6249,6393,6394,6394,6393,6394,6250,17,0,0,18,37,0,0,8263,8264,8263,8264,0,0,44,0,0,0,0,0,0,0,0,0,0,0,0,0,0,
41,0,0,0,0,0,0,0,0,0,0,44,0,0,0,0,0,0,0,0,0,0,0,0,0,0,0,0,41,0,0,0,0,0,0,8311,8312,8311,8312,0,0,44,0,0,0,0,0,0,0,0,0,0,0,0,0,0,
41,0,3221233782,3221233781,0,0,3221233782,3221233781,0,0,0,44,0,0,0,0,0,0,0,0,0,0,0,0,0,0,0,0,41,0,0,0,0,0,0,3221233784,3221233783,3221233784,3221233783,0,0,44,0,0,0,0,0,0,0,0,0,0,0,0,0,0,
41,0,3221233734,3221233733,0,0,3221233734,3221233733,0,0,0,44,1129,1129,1129,1129,1129,1129,1129,1129,1129,1129,1129,1129,1129,1129,1129,1129,41,0,0,0,0,0,0,3221233736,3221233735,3221233736,3221233735,0,0,44,0,0,0,0,0,0,0,0,0,0,0,0,0,0,
57,59,59,59,59,59,59,59,59,59,59,60,1201,1201,1201,1201,1201,1201,1201,1201,1201,1201,1201,1201,1201,1201,1201,1201,57,59,59,59,59,59,59,59,59,59,59,59,59,60,0,0,0,0,0,0,0,0,0,0,0,0,0,0
</data>
 </layer>
 <layer id="3" name="Tile Layer 3" width="56" height="24">
  <data encoding="csv">
0,0,0,0,0,0,0,0,0,0,0,0,0,0,0,0,0,0,0,0,0,0,0,0,0,0,0,0,0,0,0,0,0,0,0,0,0,0,0,0,0,0,0,0,0,0,0,0,0,0,0,0,0,0,0,0,
0,0,0,0,0,0,0,0,0,0,8737,8738,0,0,0,0,0,0,0,0,0,0,0,0,0,2433,2434,0,0,0,0,0,0,9221,9222,0,0,9221,9222,0,0,0,0,0,0,0,0,0,0,0,0,0,0,0,0,0,
0,0,0,0,0,0,0,0,0,0,8785,8786,0,0,0,0,0,0,0,0,0,0,0,0,0,2505,2506,0,0,0,0,0,0,9269,9270,0,0,9269,9270,0,1610621082,1610621130,0,0,0,2684359187,0,0,0,0,0,0,0,0,0,0,
0,0,0,0,0,0,0,0,0,0,0,0,0,0,0,0,0,0,0,0,0,0,0,0,0,0,0,0,0,0,0,0,0,0,0,9319,9320,0,0,0,1610621081,1610621129,1610620998,1610621046,0,2684359271,0,0,0,0,0,0,0,0,0,0,
0,0,8251,8252,0,0,8255,8256,0,0,0,0,0,0,0,0,0,0,0,0,0,0,0,0,0,0,0,0,0,0,0,0,0,0,0,9317,9318,0,0,0,1610621078,1610621126,1610620997,1610621045,0,0,0,0,0,0,0,0,0,0,0,0,
0,0,8299,8300,0,0,8303,8304,0,0,0,0,0,0,0,0,0,0,0,0,4994,4914,0,0,0,0,0,0,0,0,0,0,0,0,0,9365,9366,0,0,0,1610621077,1610621125,0,0,0,2684359188,0,0,0,0,0,0,0,0,0,0,
0,0,0,0,0,0,0,0,0,0,0,0,0,0,0,0,0,0,0,0,0,0,0,0,0,0,0,0,0,0,0,0,0,0,0,0,0,0,0,0,0,0,0,3221225590,3221225589,0,0,0,0,0,0,0,0,0,0,0,
0,0,0,0,0,0,0,0,0,0,0,0,0,0,0,0,0,0,0,0,0,0,0,0,0,0,0,0,0,0,0,0,0,0,0,0,0,0,0,0,0,0,0,3221225574,3221225573,0,0,0,0,0,0,0,0,0,0,0,
0,0,8251,8252,0,0,8255,8256,0,0,0,0,0,0,0,0,0,0,0,0,0,0,0,0,0,0,0,0,0,0,0,0,0,0,0,0,0,0,0,0,0,0,0,0,0,0,0,0,0,0,0,0,0,0,0,0,
0,0,8299,8300,0,0,8303,8304,0,0,0,0,0,0,0,0,833,834,0,0,0,0,0,0,0,0,0,0,0,0,0,0,0,0,0,0,0,0,0,0,0,0,0,0,0,0,0,0,0,0,0,0,0,0,0,0,
0,0,0,0,0,0,0,0,0,0,0,0,0,0,0,0,905,906,0,0,0,0,0,0,0,0,0,0,0,0,0,0,0,0,0,0,0,0,0,0,0,0,0,0,0,0,0,0,0,0,0,0,0,0,0,0,
0,0,0,0,0,0,0,0,0,0,0,0,0,0,0,0,0,0,0,0,0,0,0,0,0,0,0,0,0,0,0,0,0,0,0,0,0,0,0,0,0,0,0,0,0,0,0,0,0,0,0,0,0,0,0,0,
0,0,0,0,0,0,0,0,0,0,0,0,0,0,0,0,0,0,0,0,0,0,0,0,0,0,0,0,0,0,0,0,0,0,1735,1736,0,0,0,0,0,0,0,0,0,0,0,0,0,0,0,0,0,0,0,0,
0,0,0,0,0,0,0,0,0,0,0,0,0,0,0,0,8531,8532,0,0,0,0,0,0,0,0,0,0,0,0,0,0,1275,1276,1807,1808,0,0,0,0,0,0,0,0,0,0,0,0,0,0,0,0,0,0,0,0,
0,0,0,0,0,0,0,0,0,0,0,0,0,0,0,0,8579,8580,0,0,0,0,0,0,0,0,0,0,0,0,0,0,1347,1348,0,0,0,0,0,0,0,0,0,0,0,0,0,0,0,0,0,0,0,0,0,0,
0,0,0,0,0,0,0,0,0,0,0,0,0,0,0,0,0,0,0,0,0,0,0,0,0,0,0,0,0,0,0,0,0,0,0,0,0,0,0,0,0,0,0,0,0,0,0,0,0,0,995,996,0,0,0,0,
0,0,8253,8254,0,0,8251,8252,0,0,0,0,0,0,0,0,0,0,0,0,0,0,0,0,0,0,0,0,0,0,0,0,0,0,0,105,106,107,108,0,0,0,0,0,0,0,7221,0,0,0,1067,1068,0,0,0,0,
0,0,8301,8302,0,0,8299,8300,0,0,0,0,0,0,0,0,0,0,0,0,0,0,0,0,0,0,0,0,0,0,0,0,0,0,0,121,122,123,124,0,0,0,0,0,0,0,0,0,0,0,0,0,0,0,0,0,
0,0,0,0,0,0,0,0,0,0,0,0,0,0,0,0,0,0,0,0,0,0,0,0,0,0,0,0,0,0,0,0,0,0,0,0,0,0,0,0,0,0,0,0,0,0,0,0,0,0,0,0,0,0,0,0,
0,0,0,0,0,0,0,0,0,0,0,0,0,0,0,0,0,0,0,0,0,0,0,0,0,0,0,0,0,0,0,833,834,0,0,0,0,0,0,0,0,0,0,0,0,0,0,0,0,0,0,0,0,0,0,0,
0,0,8253,8254,0,0,8249,8250,0,0,0,0,0,0,0,0,0,0,0,0,0,0,0,0,0,0,0,0,0,0,0,905,906,0,0,105,106,107,108,0,0,0,0,0,0,0,0,0,0,0,0,0,0,0,0,0,
0,0,8301,8302,0,0,8297,8298,0,0,0,0,0,0,0,0,0,0,0,0,0,0,0,0,0,0,0,0,0,0,0,0,0,0,0,121,122,123,124,0,0,0,0,0,0,0,0,0,0,0,0,0,0,0,0,0,
0,0,0,0,0,0,0,0,0,0,0,0,0,0,0,0,0,0,0,0,0,0,0,0,0,0,0,0,0,0,0,0,0,0,0,0,0,0,0,0,0,0,0,0,0,0,0,0,0,0,0,0,0,0,0,0,
0,0,0,0,0,0,0,0,0,0,0,0,0,0,0,0,0,0,0,0,0,0,0,0,0,0,0,0,0,0,0,0,0,0,0,0,0,0,0,0,0,0,0,0,0,0,0,0,0,0,0,0,0,0,0,0
</data>
 </layer>
 <layer id="4" name="Tile Layer 4" width="56" height="24">
  <data encoding="csv">
0,0,0,0,0,0,0,0,0,0,0,0,0,0,0,0,0,0,0,0,0,0,0,0,0,0,0,0,0,0,0,0,0,0,0,0,0,0,0,0,0,0,0,0,0,0,0,0,0,0,0,0,0,0,0,0,
0,0,0,0,0,0,0,0,0,0,0,0,0,0,0,0,0,0,0,0,0,0,0,0,0,0,0,0,0,0,0,0,0,0,0,0,0,0,0,0,0,0,0,0,0,0,0,0,0,0,0,0,0,0,0,0,
0,0,0,0,0,0,0,0,0,0,0,0,0,0,0,0,0,0,0,0,0,0,0,0,0,0,0,0,0,0,0,0,0,0,0,0,0,0,0,0,0,0,0,0,0,0,0,0,0,0,0,0,0,0,0,0,
0,0,0,0,0,0,0,0,0,0,0,0,0,0,0,0,0,0,0,0,0,0,0,0,0,0,0,0,0,0,0,0,0,0,0,0,0,0,0,0,0,0,0,0,0,0,0,0,0,0,0,0,0,0,0,0,
0,0,0,8345,8346,0,0,8349,8350,0,0,0,0,0,0,0,0,0,0,0,0,0,0,0,0,0,0,0,0,0,0,0,0,0,0,0,0,0,0,0,0,0,0,0,0,0,0,0,0,0,0,0,0,0,0,0,
0,0,0,8393,8394,0,0,8397,8398,0,0,0,0,0,0,0,0,0,0,0,0,0,0,0,0,0,0,0,0,0,0,0,0,0,0,0,0,0,0,0,0,0,0,0,0,0,0,0,0,0,0,0,0,0,0,0,
0,0,0,0,0,0,0,0,0,0,0,0,0,0,0,0,0,0,0,0,0,0,0,0,0,0,0,0,0,0,0,0,0,0,0,0,0,0,0,0,0,0,0,0,0,0,0,0,0,0,0,0,0,0,0,0,
0,0,0,0,0,0,0,0,0,0,0,0,0,0,0,0,0,0,0,0,0,0,0,0,0,0,0,0,0,0,0,0,7,7,7,0,0,7,7,7,0,0,0,0,0,0,0,0,0,0,0,0,0,0,0,0,
0,0,0,8345,8346,0,0,8349,8350,0,0,0,0,0,0,0,0,0,0,0,0,0,0,0,0,0,0,0,0,0,0,0,23,23,23,0,0,23,23,23,0,0,0,0,0,0,0,0,0,0,0,0,0,0,0,0,
0,0,0,8393,8394,0,0,8397,8398,0,0,0,0,0,0,0,0,0,0,0,0,0,0,0,0,0,0,0,0,0,0,0,0,0,0,0,0,0,0,0,0,0,0,0,0,0,0,0,0,0,0,0,0,0,0,0,
0,0,0,0,0,0,0,0,0,0,0,0,0,0,0,0,0,0,0,0,0,0,0,0,0,0,0,0,0,0,0,0,0,0,0,0,0,0,0,0,0,0,0,0,0,0,0,0,0,0,0,0,0,0,0,0,
0,0,0,0,0,0,0,0,0,0,0,0,0,0,0,0,0,0,0,0,0,0,0,0,0,0,0,0,0,0,0,0,0,0,0,0,0,0,0,0,0,0,0,0,0,0,0,0,0,0,0,0,0,0,0,0,
0,0,0,0,0,0,0,0,0,0,0,0,0,0,0,0,0,0,0,0,0,0,0,0,0,0,0,0,0,0,0,0,0,0,0,0,0,0,0,0,0,0,0,0,0,0,0,0,0,0,0,0,0,0,0,0,
0,137,138,0,0,0,1853,1854,1855,1858,0,0,0,0,0,0,0,0,0,0,0,0,0,0,0,0,0,0,0,0,0,0,0,0,0,0,0,0,0,0,0,0,0,0,0,0,0,0,0,0,0,0,0,0,0,0,
0,153,154,0,0,0,1925,1926,1927,1930,0,0,0,0,0,0,0,0,0,0,0,0,0,0,0,0,0,0,0,0,0,0,0,0,0,0,0,0,0,0,0,0,0,0,0,0,0,0,0,0,0,0,0,0,0,0,
0,0,0,0,0,0,0,0,0,0,0,0,0,0,0,0,0,0,0,0,0,0,0,0,0,0,0,0,0,0,0,0,0,0,0,0,0,0,0,0,0,0,0,0,0,0,0,0,0,0,0,0,0,0,0,0,
0,0,0,0,0,0,0,0,0,0,0,0,0,0,0,0,0,0,0,0,0,0,0,0,0,0,0,0,0,0,0,0,0,0,0,0,0,4915,0,0,0,0,0,0,0,0,0,0,0,0,0,0,0,0,0,0,
0,0,0,0,0,0,0,0,0,0,0,0,0,0,0,0,0,0,0,0,0,0,0,0,0,0,0,0,0,0,0,0,0,0,0,0,0,0,0,0,0,0,0,0,0,0,0,0,0,0,0,0,0,0,0,0,
0,0,0,0,0,0,0,0,0,0,0,0,0,0,0,0,0,0,0,0,0,0,0,0,0,0,0,0,0,0,0,0,0,0,0,0,0,0,0,0,0,0,0,0,0,0,0,0,0,0,0,0,0,0,0,0,
0,0,0,0,0,0,0,0,0,0,0,0,0,0,0,0,0,0,0,0,0,0,0,0,0,0,0,0,0,0,0,0,0,0,0,0,0,0,0,0,0,0,0,0,0,0,0,0,0,0,0,0,0,0,0,0,
0,0,0,0,0,0,0,0,0,0,0,0,0,0,0,0,0,0,0,0,0,0,0,0,0,0,0,0,0,0,0,0,0,0,0,0,0,4915,0,0,0,0,0,0,0,0,0,0,0,0,0,0,0,0,0,0,
0,0,0,0,0,0,0,0,0,0,0,0,0,0,0,0,0,0,0,0,0,0,0,0,0,0,0,0,0,0,0,0,0,0,0,0,0,0,0,0,0,0,0,0,0,0,0,0,0,0,0,0,0,0,0,0,
0,0,0,0,0,0,0,0,0,0,0,0,0,0,0,0,0,0,0,0,0,0,0,0,0,0,0,0,0,0,0,0,0,0,0,0,0,0,0,0,0,0,0,0,0,0,0,0,0,0,0,0,0,0,0,0,
0,0,0,0,0,0,0,0,0,0,0,0,0,0,0,0,0,0,0,0,0,0,0,0,0,0,0,0,0,0,0,0,0,0,0,0,0,0,0,0,0,0,0,0,0,0,0,0,0,0,0,0,0,0,0,0
</data>
 </layer>
 <layer id="5" name="Tile Layer 5" width="56" height="24">
  <data encoding="csv">
0,0,0,0,0,0,0,0,0,0,0,0,0,0,0,0,0,0,0,0,0,0,0,0,0,0,0,0,0,0,0,0,0,0,0,0,0,0,0,0,0,0,0,0,0,0,0,0,0,0,0,0,0,0,0,0,
0,0,3587,3588,0,0,0,0,0,0,0,0,0,0,0,0,0,3585,3586,0,0,0,0,0,0,0,0,0,0,0,0,0,0,0,0,0,0,0,0,0,0,0,0,0,0,0,0,0,0,0,0,0,0,0,0,0,
7089,0,3659,3660,0,0,7649,0,0,0,0,0,0,0,0,0,0,3657,3658,0,0,0,0,0,0,0,0,0,0,0,0,0,0,0,0,0,0,0,0,0,0,0,0,0,0,0,0,0,0,0,0,7089,0,0,0,0,
0,0,0,0,0,0,0,0,0,0,0,0,0,0,0,0,0,0,0,0,0,0,0,0,0,0,0,0,0,0,0,0,0,0,0,0,0,0,0,0,0,0,0,0,0,0,0,0,0,0,0,0,0,0,0,0,
0,0,0,0,0,0,0,0,0,0,0,0,0,0,0,0,0,0,0,0,0,0,0,0,0,0,0,0,0,0,0,0,0,0,0,0,0,0,0,0,0,0,0,0,0,0,0,0,0,0,0,0,0,0,0,0,
0,0,0,0,0,0,0,0,0,0,0,0,0,0,0,0,0,0,0,0,0,0,0,0,0,0,0,0,0,0,0,0,0,0,0,0,0,0,0,0,0,0,0,0,0,0,0,0,0,0,0,0,0,0,0,0,
0,0,0,0,0,0,0,0,0,0,0,0,0,0,0,0,0,0,0,0,0,0,0,0,0,0,0,0,0,0,0,0,0,0,0,0,0,0,0,0,0,0,0,0,0,0,0,0,0,0,0,0,0,0,0,0,
0,0,0,0,0,0,0,0,0,0,0,0,0,0,0,0,0,0,0,0,0,0,0,0,0,0,0,0,0,0,0,0,0,0,0,0,0,0,0,0,0,0,0,0,0,0,0,0,0,0,0,0,0,0,0,0,
0,0,0,0,0,0,0,0,0,0,0,0,0,0,0,0,0,0,0,0,0,0,0,0,0,0,0,0,0,0,0,0,0,0,0,0,0,0,0,0,0,0,0,0,0,0,0,0,0,0,0,0,0,0,0,0,
0,0,0,0,0,0,0,0,0,0,0,0,0,0,0,0,0,0,0,0,0,0,0,0,0,0,0,0,0,0,0,0,0,0,0,0,0,0,0,0,0,0,0,0,0,0,0,0,0,0,0,0,0,0,0,0,
0,0,0,0,0,0,0,0,0,0,0,0,0,0,0,0,0,0,0,0,0,0,0,0,0,0,0,0,0,0,0,0,0,0,0,0,0,0,0,0,0,0,0,0,0,0,0,0,0,0,0,0,0,0,0,0,
0,0,0,0,0,0,0,0,0,0,0,0,0,0,0,0,0,0,0,0,0,0,0,0,0,0,0,0,0,0,0,0,0,0,0,0,0,0,0,0,0,0,0,0,0,0,0,0,0,0,0,0,0,0,0,0,
0,0,0,0,0,0,0,0,0,0,0,0,0,0,0,0,0,0,0,0,0,0,0,0,0,0,0,0,0,0,0,0,0,0,0,0,0,0,0,0,0,0,0,0,0,0,0,0,0,0,0,0,0,0,0,0,
0,0,0,0,0,0,0,0,0,0,995,996,0,0,0,0,0,0,0,0,0,0,0,0,0,0,0,0,0,0,0,0,0,0,0,0,0,0,0,0,0,0,0,0,0,0,0,0,0,0,0,0,0,0,0,0,
0,7173,0,0,0,0,0,0,0,0,1067,1068,0,0,0,0,0,0,0,0,0,0,0,0,0,7089,0,0,0,0,0,0,0,0,0,0,0,0,0,0,0,0,0,0,0,0,0,0,0,0,0,0,0,0,0,0,
0,0,0,0,0,0,0,0,0,0,0,0,0,0,0,0,0,0,0,0,0,0,0,0,0,0,0,0,0,0,0,0,0,0,0,0,0,0,0,0,0,0,0,0,0,0,0,0,0,0,0,0,0,0,0,0,
0,0,0,0,0,0,0,0,0,0,0,0,0,0,0,0,0,0,0,0,0,0,0,0,0,0,0,0,0,0,0,0,0,0,0,0,0,0,0,0,0,0,0,0,0,0,0,0,0,0,0,0,0,0,0,0,
0,0,0,0,0,0,0,0,0,0,0,0,0,0,0,0,0,0,0,0,0,0,0,0,0,0,0,0,0,0,0,0,0,0,0,0,0,0,0,0,0,0,0,0,0,0,0,0,0,0,0,0,0,0,0,0,
0,0,0,0,0,0,0,0,0,0,0,0,0,0,0,0,0,0,0,0,0,0,0,0,0,0,0,0,0,0,0,0,0,0,0,0,0,0,0,0,0,0,0,0,0,0,0,0,0,0,0,0,0,0,0,0,
0,0,0,0,0,0,0,0,0,0,0,0,0,0,0,0,0,0,0,0,0,0,0,0,0,0,0,0,0,0,0,0,0,0,0,0,0,0,0,0,0,0,0,0,0,0,0,0,0,0,0,0,0,0,0,0,
0,0,0,0,0,0,0,0,0,0,0,0,0,0,0,0,0,0,0,0,0,0,0,0,0,0,0,0,0,0,0,0,0,0,0,0,0,0,0,0,0,0,0,0,0,0,0,0,0,0,0,0,0,0,0,0,
0,0,0,0,0,0,0,0,0,0,0,0,0,0,0,0,0,0,0,0,0,0,0,0,0,0,0,0,0,0,0,0,0,0,0,0,0,0,0,0,0,0,0,0,0,0,0,0,0,0,0,0,0,0,0,0,
0,0,0,0,0,0,0,0,0,0,0,0,0,0,0,0,0,0,0,0,0,0,0,0,0,0,0,0,0,0,0,0,0,0,0,0,0,0,0,0,0,0,0,0,0,0,0,0,0,0,0,0,0,0,0,0,
0,0,0,0,0,0,0,0,0,0,0,0,0,0,0,0,0,0,0,0,0,0,0,0,0,0,0,0,0,0,0,0,0,0,0,0,0,0,0,0,0,0,0,0,0,0,0,0,0,0,0,0,0,0,0,0
</data>
 </layer>
</map>
